X:1
T:An Adventure at Margate
B:A. Simons: "Kentish 'Hops'"
N:published by the Ring O' Bells Country Dance Band, undated, 1990s
S:Skillern 1780
Z:Jack Campin 2001
N:I think bar 4 oughta be |f2d d3 | but I haven't checked Skillern
M:6/8
L:1/8
K:C
gec gec|a2g g3 |gec gec|f2e e3 |gec gec|afc afc|efg gfe|c3  c3:|
def fed|gec gec|def fed|gec ceg|afa afa|geg geg|agf efd|ccc c3:|
